assets/icons/traton/heart.svg

<svg xmlns="http://www.w3.org/2000/svg" width="32" height="32" viewBox="0 0 32 32" fill="none">
<path d="M27.9922 11.7363C27.8359 8.63318 25.3671 6.16394 22.3125 6.00781L22.0059 6C20.2175 6.00008 18.6108 6.78958 17.5068 8.05371L16 9.7793L14.4932 8.05371C13.4581 6.86856 11.9813 6.10017 10.3271 6.00879L9.99414 6C6.79965 6.00045 4.16926 8.53 4.00781 11.7363L4 12.0488C4.00009 13.6475 4.61317 15.0965 5.61621 16.1787L16 27.1006L26.3828 16.1787C27.3861 15.0964 27.9999 13.6478 28 12.0488L27.9922 11.7363ZM30 12.0488C29.9999 14.1721 29.182 16.1027 27.8477 17.541L16.0029 30L15.999 29.9717L15.9971 30L4.15234 17.541C2.81799 16.1027 2.00009 14.172 2 12.0488C2.0001 7.60405 5.57932 4.00047 9.99414 4C12.3876 4.00008 14.5347 5.06027 16 6.73828C17.4653 5.06026 19.6124 4.00008 22.0059 4C26.4207 4.00045 29.9999 7.60404 30 12.0488Z" fill="#001D21" />
</svg>

<svg xmlns="http://www.w3.org/2000/svg" fill="none" viewBox="0 0 32 32"><path fill="#001d21" d="M28 11.7A6 6 0 0 0 22.3 6H22a6 6 0 0 0-4.5 2L16 9.9 14.5 8a6 6 0 0 0-4.2-2L10 6a6 6 0 0 0-6 5.7v.3q0 2.5 1.6 4.2L16 27l10.4-11a6 6 0 0 0 1.6-4zm2 .3a8 8 0 0 1-2.2 5.5L16 30 4.2 17.5A8 8 0 0 1 10 4a8 8 0 0 1 6 2.7A8 8 0 0 1 22 4a8 8 0 0 1 8 8"/></svg>
